X:119
T:Trip to Bath Easton THO4.119, A
M:2/4
L:1/16
Z:vmp. Peter Dunk 2010/11.from a transcription by Fynn Titford-Mock 2007
B:Thompson's Compleat Collection of 200 Favourite Country Dances Volume IV.
Q:1/4=120
K:G
d2>e2 edcB|defg d2d2|cedc BdcB|ABcA GFED |\
d2>e2 edcB|defg d2d2|cedc gaga|b2g2 g4 :|
|:g2>b2 c'bag|f2 d'2 d'4|e2>f2 agfe|\
d2 b2 b4|dBAG efge|dBAG FAFD|dBAG efgd|B2G2 G4:|
